X:855
T: Waltzing Armadillo (with piano acc.)
C: BB
R: jig
Q: 1/8=320
M: 6/8
L: 1/8
V: 1 program 1 105 %banjo
V: 2 volume=70 clef=bass m=D program 1 01
K: G
[V:1] A | "G"Bcd gdd | "G"BGF G2 A | "Em"Bcd eBA | "Em"GED E2 A |
[V:2] z|G,,2[GBD]D,2[GBD]|G,,2[GBD]D,2[GBD]|E,2[EBG]B,,2[EBG]|E,2[EBG]B,,2[EBG]|
%
[V:1] "G"Bcd "Em"ede | "D"fdf "C"g2 a | "G"bag "Em"egd | "G"BGF "G"G2 :|
[V:2] G,,2[GDB]E,2[EBG]|D,2[AFD]C,2[CGE]|G,,2[GBD]E,2[EBG]|G,,2[GDB][G,,2D,2B,2]:|
%
[V:1] A|"G"BAG "Em"EB,B,|"D"DEF "G"G2 A | "G"Bcd "Em"ged | "G"BAG "D"A2 A |
[V:2] z|G,,2[GDB]E,2[EBG]|D,2[AFD]B,,2[GDB]|G,,2[GDB]E,2[EBG]|G,,2[GDB]D,2[AFD]|
%
[V:1] "G"BAG DB,D | "Am"ECA, "G"G,2 e | "G"bag "Em"egd | "G"BGF "G"G2 :|
[V:2] G,,2[GDB]B,,2[BGD]|A,,2[AEC]B,,2[GDB]|G,,2[GDB]E,2[EBG]|G,,2[GDB][G,,2D,2B,2]:|
%
[V:1] e |"D"fdf "D7"fdf | "G"gba gfe | "D"fdf "D7"fdA | "G"BGF G2 e |
[V:2] z |D,2[AFD]A,,2[AFC]|G,,2[GDB]B,,2[GDB]|D,2[AFD]A,,2[DFC]|G,,2[GDB]B,,2[GBD]|
%
[V:1] "D"fdf "C"ece | "G"dBd "Em"efg | "G"bag "Em"egd |"G"BGF "G"G2 :|
[V:2] D,2[AFD]C,2[CGE]|G,,2[GDB]E,2[EBG]|G,,2[GDB]E,2[EBG]|G,,2[GDB][G,,2D,2B,2]:|

%%%%%%%%%%%%%%%%%%%%%%%%%%%%%%%%%%%%%%%%%%%

